X:1
T:Lincoln (Choralist), LM
T:Lincoln (Choralist), LM
T:Anonymous, 1847
T:Public Domain Courtesy of the Cyber Hymnal™
C:Anonymous, 1847
Z:Public Domain
Z:Courtesy of the Cyber Hymnal™
%%score 1 2 3 4
L:1/8
Q:1/2=105
M:2/2
K:Bb
V:1 treble 
V:2 treble 
V:3 treble-8 
V:4 bass 
V:1
 F6 F2 | F6 F2 | B4 G4 | B4 F4 | E6 E2 | F4 F4 | A4 B4 | B4 A4 | c6 d2 | A6 B2 | (c2 B2) (e2 d2) | %11
 d4 c4 | B4 B4 | B6 F2 | F4 F4 | F8 | F8 |] %17
V:2
 D6 E2 | F6 D2 | E4 E4 | D4 B,4 | B,6 B,2 | B,4 F4 | F4 F4 | F4 F4 | F6 F2 | F6 F2 | F4 F4 | %11
 F4 F4 | F4 E4 | F6 F2 | E4 D4 | E8 | D8 |] %17
V:3
 B6 c2 | d6 B2 | G4 B4 | F4 D4 | G6 G2 | F4 B4 | e4 d4 | d4 c4 | A6 B2 | c6 d2 | (e2 d2) (c2 B2) | %11
 B4 A4 | B4 A2 G2 | F6 B2 | A4 B4 | c8 | B8 |] %17
V:4
 B,,6 B,,2 | B,,6 B,,2 | B,,4 B,,4 | B,,4 B,,4 | E,6 E,2 | D,4 D,4 | C,4 B,,4 | F,4 F,4 | F,6 F,2 | %9
 F,6 F,2 | F,4 B,,4 | F,4 F,4 | D,4 E,4 | D,6 D,2 | C,4 B,,4 | F,8 | B,,8 |] %17

